src/activities/enumerate/resource/watermelon.svg

<?xml version="1.0" encoding="UTF-8" standalone="no"?>
<!-- Created with Inkscape (http://www.inkscape.org/) -->

<svg
   xmlns:osb="http://www.openswatchbook.org/uri/2009/osb"
   xmlns:dc="http://purl.org/dc/elements/1.1/"
   xmlns:cc="http://creativecommons.org/ns#"
   xmlns:rdf="http://www.w3.org/1999/02/22-rdf-syntax-ns#"
   xmlns:svg="http://www.w3.org/2000/svg"
   xmlns="http://www.w3.org/2000/svg"
   xmlns:sodipodi="http://sodipodi.sourceforge.net/DTD/sodipodi-0.dtd"
   xmlns:inkscape="http://www.inkscape.org/namespaces/inkscape"
   id="svg2"
   version="1.1"
   inkscape:version="0.92.1 r15371"
   width="100"
   height="100"
   sodipodi:docname="watermelon.svg">
  <sodipodi:namedview
     pagecolor="#ffffff"
     bordercolor="#666666"
     borderopacity="1"
     objecttolerance="10"
     gridtolerance="10"
     guidetolerance="10"
     inkscape:pageopacity="0"
     inkscape:pageshadow="2"
     inkscape:window-width="1884"
     inkscape:window-height="1051"
     id="namedview4"
     showgrid="false"
     inkscape:zoom="3.9032294"
     inkscape:cx="60.709852"
     inkscape:cy="39.09979"
     inkscape:window-x="0"
     inkscape:window-y="0"
     inkscape:window-maximized="1"
     inkscape:current-layer="layer1"
     inkscape:snap-global="false"
     showguides="false" />
  <metadata
     id="metadata8">
    <rdf:RDF>
      <cc:Work
         rdf:about="">
        <dc:format>image/svg+xml</dc:format>
        <dc:type
           rdf:resource="http://purl.org/dc/dcmitype/StillImage" />
        <dc:title></dc:title>
        <dc:date>2017</dc:date>
        <dc:creator>
          <cc:Agent>
            <dc:title>Timothée Giet</dc:title>
          </cc:Agent>
        </dc:creator>
        <cc:license
           rdf:resource="http://creativecommons.org/licenses/by-sa/4.0/" />
      </cc:Work>
      <cc:License
         rdf:about="http://creativecommons.org/licenses/by-sa/4.0/">
        <cc:permits
           rdf:resource="http://creativecommons.org/ns#Reproduction" />
        <cc:permits
           rdf:resource="http://creativecommons.org/ns#Distribution" />
        <cc:requires
           rdf:resource="http://creativecommons.org/ns#Notice" />
        <cc:requires
           rdf:resource="http://creativecommons.org/ns#Attribution" />
        <cc:permits
           rdf:resource="http://creativecommons.org/ns#DerivativeWorks" />
        <cc:requires
           rdf:resource="http://creativecommons.org/ns#ShareAlike" />
      </cc:License>
    </rdf:RDF>
  </metadata>
  <defs
     id="defs6">
    <linearGradient
       id="linearGradient4582"
       osb:paint="gradient">
      <stop
         style="stop-color:#ff8c00;stop-opacity:1;"
         offset="0"
         id="stop4578" />
      <stop
         style="stop-color:#ff0300;stop-opacity:0"
         offset="1"
         id="stop4580" />
    </linearGradient>
  </defs>
  <g
     inkscape:groupmode="layer"
     id="layer1"
     inkscape:label="Layer 1">
    <ellipse
       style="opacity:1;fill:#5e782f;fill-opacity:0.97572547;stroke:none;stroke-width:1.064219;stroke-linejoin:miter;stroke-miterlimit:4;stroke-dasharray:none;stroke-opacity:1"
       id="path884-3"
       cx="50"
       cy="50"
       rx="49"
       ry="42.194443" />
    <ellipse
       style="opacity:1;fill:#a9bf6f;fill-opacity:1;stroke:none;stroke-width:1.00049865;stroke-linejoin:miter;stroke-miterlimit:4;stroke-dasharray:none;stroke-opacity:1"
       id="path884"
       cx="49.487602"
       cy="49.231403"
       rx="46.066116"
       ry="39.668045" />
    <path
       style="fill:#416116;fill-opacity:1;stroke:none;stroke-width:1px;stroke-linecap:butt;stroke-linejoin:miter;stroke-opacity:1"
       d="M 53.167969 7.9414062 A 8.1983395 4.4834671 0 0 1 45.347656 11.099609 A 8.1983395 4.4834671 0 0 1 42.59375 10.833984 C 40.946735 11.589696 39.412769 12.4007 37.980469 13.257812 A 3.2024765 1.2809906 0 0 1 38.941406 14.173828 A 3.2024765 1.2809906 0 0 1 35.740234 15.455078 A 3.2024765 1.2809906 0 0 1 34.761719 15.392578 C 30.383069 18.574489 27.147291 22.204315 24.777344 25.912109 A 2.433882 2.9462783 0 0 1 25.619141 28.136719 A 2.433882 2.9462783 0 0 1 23.185547 31.082031 A 2.433882 2.9462783 0 0 1 22.126953 30.787109 C 21.444449 32.285745 20.884712 33.766475 20.417969 35.207031 A 2.6900802 4.995863 0 0 1 20.751953 37.615234 A 2.6900802 4.995863 0 0 1 18.730469 42.449219 C 18.181061 46.128623 18.184475 49.000458 18.189453 50.298828 C 19.647058 46.488502 22.681283 37.419484 29.464844 29.199219 A 4.3553677 5.6363583 0 0 1 33.818359 23.652344 A 4.3553677 5.6363583 0 0 1 34.714844 23.779297 C 40.648925 18.60252 48.613331 14.503099 59.308594 13.457031 A 7.5578442 3.0743773 0 0 1 66.226562 11.611328 A 7.5578442 3.0743773 0 0 1 73.429688 13.757812 C 74.08533 13.827079 74.748053 13.897894 75.359375 13.957031 C 68.622747 10.435715 61.007917 8.3882725 53.167969 7.9414062 z M 21.771484 15.574219 C 18.469686 17.568809 15.4665 19.906807 12.830078 22.535156 C 9.9989144 29.250997 9.4593631 34.523506 9.9667969 38.5625 A 1.6652877 2.0495849 0 0 1 11.273438 40.5625 A 1.6652877 2.0495849 0 0 1 10.744141 42.058594 C 12.200945 46.5786 14.897363 48.872448 15.572266 49.447266 C 14.921991 47.605836 13.214464 42.195025 13.759766 35.207031 A 2.0495849 4.995863 0 0 1 13.066406 31.466797 A 2.0495849 4.995863 0 0 1 15.115234 26.470703 A 2.0495849 4.995863 0 0 1 15.560547 26.595703 C 16.810221 23.030905 18.776891 19.298027 21.771484 15.574219 z M 72.529297 32.517578 C 72.000372 32.552908 71.473802 32.597938 70.947266 32.644531 C 68.449388 33.929488 64.867692 34.666436 61.103516 34.669922 C 60.42814 34.666822 59.754284 34.640044 59.087891 34.589844 C 58.431583 34.745107 57.776355 34.902617 57.128906 35.070312 C 56.086608 37.528109 51.936764 39.277633 47.140625 39.28125 C 46.537256 39.27985 45.935309 39.250399 45.341797 39.193359 C 45.344497 39.222639 45.346356 39.25194 45.347656 39.28125 C 45.347159 41.120661 42.651261 42.611581 39.326172 42.611328 C 38.604156 42.610391 37.888332 42.537618 37.212891 42.396484 C 36.59086 42.690519 35.943735 42.984871 35.349609 43.277344 C 35.351909 43.311824 35.353869 43.346334 35.355469 43.380859 C 35.355345 45.927706 33.405355 47.992247 31 47.992188 C 30.031154 47.991248 29.090262 47.648294 28.326172 47.017578 C 23.855596 49.584316 21.05416 51.574318 20.652344 51.949219 C 21.695483 51.339495 28.650988 49.867745 38.943359 48.988281 C 38.977949 47.301189 42.121874 45.941464 45.988281 45.941406 C 49.252478 45.942806 52.087039 46.922412 52.837891 48.308594 C 53.231973 48.303894 53.650135 48.312847 54.048828 48.310547 C 54.412333 47.618759 54.926961 47.223928 55.466797 47.222656 C 56.008514 47.223524 56.524853 47.620707 56.888672 48.316406 C 57.351676 48.320406 57.791502 48.310859 58.259766 48.318359 C 59.024244 47.3221 60.393482 46.712645 61.871094 46.710938 C 63.290024 46.711256 64.614105 47.272433 65.396484 48.205078 C 66.531574 46.27418 70.565503 44.920691 75.193359 44.917969 C 80.782972 44.917667 85.314583 46.867781 85.314453 49.273438 C 85.198008 49.922525 86.734059 48.265203 87.492188 48.248047 C 88.836157 48.248207 89.925622 49.33767 89.925781 50.681641 C 89.924581 51.008732 89.857521 51.332231 89.728516 51.632812 C 92.742195 52.249733 95.765988 52.956256 98.78125 53.787109 C 98.919952 52.528108 98.993023 51.264555 99 50 C 98.98622 45.065874 97.967531 40.172068 95.990234 35.541016 C 95.667764 35.406584 95.352582 35.283286 95.048828 35.181641 C 92.074053 34.186187 89.089709 33.486644 86.117188 33.029297 C 84.469368 34.071903 82.131297 34.66759 79.677734 34.669922 C 76.824054 34.667322 74.153538 33.863278 72.529297 32.517578 z M 3.7421875 36.226562 C 2.8414981 38.472097 2.1626534 40.779124 1.7128906 43.123047 C 2.3079595 43.645635 3.0023621 44.246829 3.6757812 44.832031 A 2.0495849 1.5371886 0 0 1 4.6113281 44.662109 A 2.0495849 1.5371886 0 0 1 6.6621094 46.199219 A 2.0495849 1.5371886 0 0 1 6.3066406 47.0625 C 9.0942365 49.328356 12.151097 51.485932 14.859375 52.347656 C 13.206794 51.613176 6.9670306 42.601873 3.7421875 36.226562 z M 1.0214844 49.636719 C 1.0137168 49.757786 1.0065553 49.87888 1 50 C 1.012684 51.266085 1.091539 52.531037 1.2363281 53.791016 L 3.1914062 53.886719 A 2.0495849 1.1528915 0 0 1 5.1230469 53.115234 A 2.0495849 1.1528915 0 0 1 7.1445312 54.080078 L 13.578125 54.396484 C 13.206766 54.396484 5.346117 51.582362 1.0214844 49.636719 z M 19.984375 54.654297 C 21.690917 55.6819 26.296655 57.195925 32.443359 58.865234 C 33.383822 58.790754 34.366414 58.752528 35.355469 58.751953 C 40.591818 58.752062 44.835933 59.784888 44.833984 61.058594 C 44.829584 61.317467 44.646062 61.574314 44.291016 61.818359 C 50.343583 63.219706 56.895053 64.594623 63.349609 65.785156 C 64.646156 65.709826 66.067283 65.670439 67.507812 65.669922 C 69.125146 63.880907 81.189549 67.868819 77.671875 68.400391 C 80.591229 68.838336 80.024427 68.430523 82.623047 68.714844 C 83.251159 67.98912 86.155996 67.463428 89.541016 67.462891 C 91.320504 67.463215 93.033515 67.610443 94.335938 67.875 C 95.871487 65.056027 97.043743 62.098436 97.824219 59.054688 C 93.418367 59.122968 83.758908 58.892215 72.757812 58.476562 C 72.758522 58.483064 72.759166 58.489584 72.759766 58.496094 C 72.759403 59.486436 71.497657 60.289127 69.941406 60.289062 C 68.926819 59.948887 67.84889 59.538247 67.123047 58.751953 C 67.12285 60.449592 64.026718 61.825845 60.207031 61.826172 C 56.386582 61.826324 53.28926 60.449931 53.289062 58.751953 C 53.290462 58.361131 53.459479 57.974011 53.787109 57.611328 C 38.690579 56.810465 24.579364 55.765973 19.984375 54.654297 z M 14.859375 56.447266 C 14.859375 56.447266 11.683123 58.909497 8.9550781 61.777344 A 1.4090896 2.5619812 0 0 1 8.9667969 62.082031 A 1.4090896 2.5619812 0 0 1 7.5585938 64.644531 A 1.4090896 2.5619812 0 0 1 6.8203125 64.263672 C 6.4686842 64.739382 6.1505819 65.211249 5.8925781 65.669922 C 5.6048158 66.181499 5.4537576 66.743804 5.3925781 67.333984 C 7.8255589 71.993922 11.221156 76.234613 15.414062 79.849609 C 15.226743 79.241525 14.816463 78.383789 14.091797 77.199219 C 12.698564 74.921779 11.832982 72.857698 11.34375 70.957031 A 1.2809906 2.6900802 0 0 1 11.015625 71.048828 A 1.2809906 2.6900802 0 0 1 9.7363281 68.359375 A 1.2809906 2.6900802 0 0 1 10.935547 65.677734 C 11.338759 62.069752 13.102848 59.131685 14.859375 56.447266 z M 19.503906 56.605469 C 19.537118 56.707712 19.661324 57.818037 20.025391 59.542969 A 1.1528915 5.3801603 0 0 1 20.111328 59.521484 A 1.1528915 5.3801603 0 0 1 21.248047 64.080078 C 22.197333 66.987018 23.662274 70.441289 25.914062 73.927734 A 3.5867736 2.8181791 0 0 1 26.644531 73.867188 A 3.5867736 2.8181791 0 0 1 30.230469 76.685547 A 3.5867736 2.8181791 0 0 1 29.380859 78.501953 C 31.409523 80.798309 33.843069 82.995669 36.789062 84.923828 A 5.7644577 2.433882 0 0 1 37.789062 84.884766 A 5.7644577 2.433882 0 0 1 43.552734 87.318359 A 5.7644577 2.433882 0 0 1 43.097656 88.259766 C 47.106361 89.936508 51.79311 91.156557 57.277344 91.689453 C 67.506772 90.371113 76.989373 86.299131 84.367188 80.056641 C 83.082065 80.658109 81.578825 81.396883 79.785156 82.324219 C 76.30697 84.12246 72.920197 85.29329 69.638672 85.960938 A 10.504123 4.6115661 0 0 1 59.4375 89.496094 A 10.504123 4.6115661 0 0 1 48.933594 84.884766 A 10.504123 4.6115661 0 0 1 49.216797 83.839844 C 49.036351 83.76598 48.852978 83.697348 48.673828 83.621094 A 7.5578442 4.3553677 0 0 1 46.244141 83.859375 A 7.5578442 4.3553677 0 0 1 38.685547 79.503906 A 7.5578442 4.3553677 0 0 1 39.050781 78.171875 A 3.0743773 2.305783 0 0 1 38.429688 78.222656 A 3.0743773 2.305783 0 0 1 35.355469 75.917969 A 3.0743773 2.305783 0 0 1 35.466797 75.300781 C 33.487683 73.633062 31.666172 71.906721 30.019531 70.199219 A 3.7148726 4.6115661 0 0 1 29.333984 70.28125 A 3.7148726 4.6115661 0 0 1 25.619141 65.669922 A 3.7148726 4.6115661 0 0 1 25.638672 65.242188 C 21.826807 60.584209 19.615942 56.901438 19.503906 56.605469 z M 16.433594 58.214844 C 16.378247 58.82451 15.769242 60.483106 15.363281 62.892578 A 0.89669341 3.2024765 0 0 1 15.884766 65.796875 A 0.89669341 3.2024765 0 0 1 15.083984 68.980469 C 15.419421 73.274487 16.966554 78.519097 21.349609 84.181641 C 22.599691 84.956282 23.89149 85.679741 25.220703 86.349609 C 23.454209 84.249706 22.055705 82.225068 20.941406 80.269531 A 0.89669341 1.1528915 0 0 1 20.880859 80.273438 A 0.89669341 1.1528915 0 0 1 19.984375 79.119141 A 0.89669341 1.1528915 0 0 1 20.072266 78.625 C 19.521671 77.522836 19.062839 76.445899 18.673828 75.388672 A 1.4090896 2.1776838 0 0 1 17.421875 73.226562 A 1.4090896 2.1776838 0 0 1 17.648438 72.042969 C 16.394685 66.921799 16.612427 62.342369 16.433594 58.214844 z "
       id="path923" />
  </g>
</svg>

<!--Created with Inkscape (http://www.inkscape.org/)--><svg xmlns:dc="http://purl.org/dc/elements/1.1/" xmlns:cc="http://creativecommons.org/ns#" xmlns:rdf="http://www.w3.org/1999/02/22-rdf-syntax-ns#" xmlns="http://www.w3.org/2000/svg" xmlns:sodipodi="http://sodipodi.sourceforge.net/DTD/sodipodi-0.dtd" xmlns:inkscape="http://www.inkscape.org/namespaces/inkscape" inkscape:version="0.92.1 r15371" width="100" height="100" sodipodi:docname="watermelon.svg"><sodipodi:namedview pagecolor="#ffffff" bordercolor="#666666" borderopacity="1" objecttolerance="10" gridtolerance="10" guidetolerance="10" inkscape:pageopacity="0" inkscape:pageshadow="2" inkscape:window-width="1884" inkscape:window-height="1051" showgrid="false" inkscape:zoom="3.9032294" inkscape:cx="60.709852" inkscape:cy="39.09979" inkscape:window-x="0" inkscape:window-y="0" inkscape:window-maximized="1" inkscape:current-layer="layer1" inkscape:snap-global="false" showguides="false"/><metadata><rdf:RDF><cc:Work><dc:format>image/svg+xml</dc:format><dc:type rdf:resource="http://purl.org/dc/dcmitype/StillImage"/><dc:title/><dc:date>2017</dc:date><dc:creator><cc:Agent><dc:title>Timothée Giet</dc:title></cc:Agent></dc:creator><cc:license rdf:resource="http://creativecommons.org/licenses/by-sa/4.0/"/></cc:Work><cc:License rdf:about="http://creativecommons.org/licenses/by-sa/4.0/"><cc:permits rdf:resource="http://creativecommons.org/ns#Reproduction"/><cc:permits rdf:resource="http://creativecommons.org/ns#Distribution"/><cc:requires rdf:resource="http://creativecommons.org/ns#Notice"/><cc:requires rdf:resource="http://creativecommons.org/ns#Attribution"/><cc:permits rdf:resource="http://creativecommons.org/ns#DerivativeWorks"/><cc:requires rdf:resource="http://creativecommons.org/ns#ShareAlike"/></cc:License></rdf:RDF></metadata><g inkscape:groupmode="layer" inkscape:label="Layer 1"><ellipse style="opacity:1;fill:#5e782f;fill-opacity:.97572547;stroke:none;stroke-width:1.064219;stroke-linejoin:miter;stroke-miterlimit:4;stroke-dasharray:none;stroke-opacity:1" cx="50" cy="50" rx="49" ry="42.194443"/><ellipse style="opacity:1;fill:#a9bf6f;fill-opacity:1;stroke:none;stroke-width:1.00049865;stroke-linejoin:miter;stroke-miterlimit:4;stroke-dasharray:none;stroke-opacity:1" cx="49.487602" cy="49.231403" rx="46.066116" ry="39.668045"/><path style="fill:#416116;fill-opacity:1;stroke:none;stroke-width:1px;stroke-linecap:butt;stroke-linejoin:miter;stroke-opacity:1" d="M53.168 7.941a8.198 4.483 0 0 1-7.82 3.159 8.198 4.483 0 0 1-2.754-.266 47.752 47.752 0 0 0-4.614 2.424 3.202 1.281 0 0 1 .961.916 3.202 1.281 0 0 1-3.2 1.281 3.202 1.281 0 0 1-.98-.062c-4.378 3.181-7.614 6.811-9.984 10.52a2.434 2.946 0 0 1 .842 2.224 2.434 2.946 0 0 1-2.433 2.945 2.434 2.946 0 0 1-1.059-.295 41.533 41.533 0 0 0-1.709 4.42 2.69 4.996 0 0 1 .334 2.408 2.69 4.996 0 0 1-2.022 4.834 50.277 50.277 0 0 0-.54 7.85c1.457-3.81 4.491-12.88 11.275-21.1a4.355 5.636 0 0 1 4.353-5.547 4.355 5.636 0 0 1 .897.127c5.934-5.176 13.898-9.276 24.594-10.322a7.558 3.074 0 0 1 6.918-1.846 7.558 3.074 0 0 1 7.203 2.147c.655.07 1.318.14 1.93.199-6.737-3.521-14.352-5.569-22.192-6.016zm-31.397 7.633a47.262 47.262 0 0 0-8.94 6.961c-2.832 6.716-3.372 11.989-2.864 16.027a1.665 2.05 0 0 1 1.306 2 1.665 2.05 0 0 1-.529 1.497c1.457 4.52 4.153 6.813 4.828 7.388-.65-1.841-2.358-7.252-1.812-14.24a2.05 4.996 0 0 1-.694-3.74 2.05 4.996 0 0 1 2.05-4.996 2.05 4.996 0 0 1 .445.125c1.25-3.565 3.216-7.298 6.21-11.022zM72.53 32.518a73.54 73.54 0 0 0-1.582.127c-2.498 1.284-6.08 2.021-9.843 2.025-.676-.003-1.35-.03-2.016-.08-.656.155-1.312.313-1.96.48-1.041 2.458-5.191 4.208-9.987 4.211a19.298 19.298 0 0 1-1.8-.088l.007.088c0 1.84-2.697 3.33-6.022 3.33-.722 0-1.438-.073-2.113-.215-.622.295-1.27.589-1.863.881l.005.104c0 2.547-1.95 4.611-4.355 4.611-.969 0-1.91-.344-2.674-.974-4.47 2.566-7.272 4.556-7.674 4.931 1.043-.61 7.999-2.081 18.291-2.96.035-1.688 3.179-3.048 7.045-3.048 3.264.002 6.099.981 6.85 2.368.394-.005.812.004 1.21.002.364-.692.879-1.087 1.419-1.088.542 0 1.058.398 1.422 1.093.463.004.903-.005 1.37.002.765-.996 2.134-1.605 3.612-1.607 1.419 0 2.743.561 3.525 1.494 1.136-1.93 5.17-3.284 9.797-3.287 5.59 0 10.122 1.95 10.121 4.355-.116.65 1.42-1.008 2.178-1.025a2.434 2.434 0 0 1 2.434 2.434c-.001.327-.068.65-.197.95 3.013.618 6.037 1.324 9.052 2.155.139-1.259.212-2.522.219-3.787-.014-4.934-1.032-9.828-3.01-14.459a14.126 14.126 0 0 0-.941-.36 53.93 53.93 0 0 0-8.932-2.152c-1.648 1.043-3.986 1.639-6.44 1.64-2.853-.002-5.523-.806-7.148-2.151zM3.742 36.227a37.505 37.505 0 0 0-2.03 6.896c.596.523 1.29 1.124 1.964 1.709a2.05 1.537 0 0 1 .935-.17A2.05 1.537 0 0 1 6.662 46.2a2.05 1.537 0 0 1-.355.864c2.787 2.265 5.844 4.423 8.552 5.285-1.652-.735-7.892-9.746-11.117-16.121zm-2.72 13.41L1 50c.013 1.266.092 2.531.236 3.791l1.955.096a2.05 1.153 0 0 1 1.932-.772 2.05 1.153 0 0 1 2.022.965l6.433.316c-.371 0-8.232-2.814-12.557-4.76zm18.962 5.017c1.707 1.028 6.313 2.542 12.46 4.211.94-.074 1.922-.112 2.911-.113 5.237 0 9.48 1.033 9.479 2.307-.004.258-.188.515-.543.76a438.129 438.129 0 0 0 19.059 3.966 73.19 73.19 0 0 1 4.158-.115c1.617-1.79 13.682 2.199 10.164 2.73 2.92.438 2.352.03 4.951.315.628-.726 3.533-1.252 6.918-1.252 1.78 0 3.493.147 4.795.412a38.357 38.357 0 0 0 3.488-8.82c-4.406.068-14.065-.163-25.066-.578l.002.02c0 .99-1.262 1.792-2.819 1.792-1.014-.34-2.092-.75-2.818-1.537 0 1.698-3.096 3.074-6.916 3.074-3.82 0-6.918-1.376-6.918-3.074.001-.39.17-.778.498-1.14-15.096-.802-29.208-1.846-33.803-2.958zm-5.125 1.793s-3.176 2.462-5.904 5.33a1.41 2.562 0 0 1 .012.305 1.41 2.562 0 0 1-1.408 2.563 1.41 2.562 0 0 1-.739-.381c-.351.475-.67.947-.927 1.406-.288.511-.44 1.074-.5 1.664 2.433 4.66 5.828 8.9 10.021 12.516-.187-.608-.598-1.466-1.322-2.65-1.393-2.278-2.259-4.342-2.748-6.243a1.281 2.69 0 0 1-.328.092 1.281 2.69 0 0 1-1.28-2.69 1.281 2.69 0 0 1 1.2-2.681c.403-3.608 2.167-6.546 3.923-9.23zm4.645.158c.033.103.157 1.213.521 2.938a1.153 5.38 0 0 1 .086-.022 1.153 5.38 0 0 1 1.137 4.56c.95 2.906 2.414 6.36 4.666 9.847a3.587 2.818 0 0 1 .73-.06 3.587 2.818 0 0 1 3.586 2.818 3.587 2.818 0 0 1-.85 1.816 36.57 36.57 0 0 0 7.41 6.422 5.764 2.434 0 0 1 1-.04 5.764 2.434 0 0 1 5.763 2.434 5.764 2.434 0 0 1-.455.942c4.008 1.677 8.695 2.897 14.18 3.43 10.229-1.319 19.711-5.39 27.09-11.633-1.286.601-2.79 1.34-4.583 2.267-3.478 1.798-6.865 2.97-10.146 3.637a10.504 4.612 0 0 1-10.201 3.535 10.504 4.612 0 0 1-10.504-4.611 10.504 4.612 0 0 1 .283-1.045c-.18-.074-.364-.143-.543-.219a7.558 4.355 0 0 1-2.43.238 7.558 4.355 0 0 1-7.558-4.355 7.558 4.355 0 0 1 .365-1.332 3.074 2.306 0 0 1-.621.05 3.074 2.306 0 0 1-3.075-2.304 3.074 2.306 0 0 1 .112-.617 72.452 72.452 0 0 1-5.447-5.102 3.715 4.612 0 0 1-.686.082 3.715 4.612 0 0 1-3.715-4.611 3.715 4.612 0 0 1 .02-.428c-3.812-4.658-6.023-8.34-6.135-8.637zm-3.07 1.61c-.056.61-.665 2.268-1.07 4.678a.897 3.202 0 0 1 .52 2.904.897 3.202 0 0 1-.8 3.183c.335 4.294 1.883 9.54 6.266 15.202a50.469 50.469 0 0 0 3.87 2.168c-1.766-2.1-3.164-4.125-4.279-6.08a.897 1.153 0 0 1-.06.003.897 1.153 0 0 1-.897-1.154.897 1.153 0 0 1 .088-.494 31.756 31.756 0 0 1-1.398-3.236 1.41 2.178 0 0 1-1.252-2.162 1.41 2.178 0 0 1 .226-1.184c-1.253-5.121-1.036-9.7-1.214-13.828z"/></g></svg>
